dest/img/img-trust-14.svg

<svg fill="none" height="38" viewBox="0 0 141 38" width="141" xmlns="http://www.w3.org/2000/svg"><g fill="#576472"><path d="m.906959 16.8411c0-1.22-.037797-2.1727-.09449-2.9368h3.952761c-.07559.8395-.09764 1.393-.09764 2.9368v2.2105h2.50394v-2.2105l-.07559-2.9368h4.02836c-.0756.9339-.0945 1.5061-.0945 2.9368v7.7226l.0945 2.9179h-4.02836l.07559-2.9179v-2.8803h-2.50394v2.8803l.09764 2.9179h-3.952761l.09449-2.8613z"/><path d="m18.5007 15.7564c-.3622.0189-.6867.1321-.8599.3239-.6677.6666-.9921 2.2513-.9921 4.6536 0 2.2137.3244 3.833.8976 4.4242.2111.2295.5733.3616.9355.3616 1.2598 0 1.8708-1.6225 1.8708-4.9964 0-2.5375-.5134-4.3487-1.3165-4.6726-.1512-.0566-.3433-.0943-.5134-.0943zm3.6472-.8395c1.3764 1.3332 2.063 3.2229 2.063 5.7196 0 4.3077-2.3307 7.1125-5.9024 7.1125-1.4708 0-2.7118-.5157-3.7259-1.5627-1.241-1.2578-1.8331-3.0532-1.8331-5.4744 0-4.2512 2.3118-7.1503 5.748-7.1503.0189 0 .0378 0 .0756.0189 1.6095.0409 2.6394.4402 3.5748 1.3364z"/><path d="m30.2675 19.8566c1.2409 0 1.7008-.5345 1.7008-1.9243 0-1.1823-.5355-1.7357-1.6819-1.7357-.1921 0-.3244 0-.611.0754v3.5846zm-4.3748-5.9491h5.7102c2.4441 0 4.2205 1.6193 4.2205 3.8707 0 1.2955-.3622 2.3268-1.0299 3.072-.9764 1.0502-1.9685 1.4118-3.8016 1.4118h-.5354c-.1733-.0188-.441-.0188-.7843-.0188v2.2891c0 .7452.0189 1.7734.0567 2.5941l.0189.3616h-3.8583l.0189-.3616c.0567-.783.0756-1.7357.0756-2.5941v-7.6723c0-.5911-.0189-1.2011-.0756-2.2891z"/><path d="m41.2313 19.149c.4976-1.1445.7276-1.5627 1.4142-2.5941.4-.6288.7811-1.1068 1.1086-1.4306.7843-.783 1.8709-1.2766 2.8662-1.2766.1543 0 .2866.0188.5543.0566v2.6884c-.7055.0377-1.1433.2107-1.7386.7075-.4409.3616-.6488.61-1.0897 1.3143l3.6661 8.8671h-4.0126l-2.0063-5.5498-.822 1.1634v1.4716c0 .915.0189 1.6948.0567 2.5752l.0189.3427h-3.9749l.0189-.3427c.0378-.7641.0756-1.7168.0756-2.5752v-7.7446c0-.6854-.0378-1.4307-.0756-2.5752l-.0189-.3427h4.0504l-.0189.3616c-.0566.8961-.0755 1.7356-.0755 2.5563v2.3268z"/><path d="m50.0755 27.4816.0189-.4779c.0377-1.2011.0566-1.7168.0566-2.4966v-7.666c0-1.2577-.0189-2.0973-.0755-2.9368h3.9748c-.0567.9936-.0977 1.9464-.0977 2.9368v7.666c0 .7043.0189 1.6382.0756 2.5532l.0189.4182h-3.9716z"/><path d="m63.5053 13.9043h2.8063l-.0189.3427c-.0378.783-.0756 1.7546-.0756 2.613v10.6216h-3.2094l-3.9339-8.867v5.9522c0 .7421.0189 1.6603.0756 2.5753l.0189.3427h-2.8094l.0189-.3427c.0377-.783.0755-1.7357.0755-2.5753v-7.7037c0-.7074-.0189-1.4118-.0755-2.6129l-.0189-.3428h4.107l3.1528 6.8862v-3.9305c0-.5722-.0189-1.2011-.0756-2.3268z"/><path d="m68.2234 23.2871c.9166 1.0124 1.3386 1.3552 2.1985 1.7545.5543.2484 1.1275.3836 1.6598.3836 1.1465 0 1.8709-.5534 1.8709-1.3929 0-.783-.4378-1.1446-2.1197-1.7357-1.4331-.4968-1.9276-.7609-2.5575-1.3332-.822-.8396-1.0866-1.5628-1.0866-2.8048 0-2.8205 2.1575-4.5939 5.6724-4.5939.9355 0 1.4898.0943 2.6363.3616l-.0378 3.4714c-.7465-.7641-1.0898-1.0125-1.7764-1.3144-.4032-.1918-.8032-.2861-1.1465-.2861-1.0519 0-1.7763.5534-1.7763 1.2986 0 .7421.4787 1.1446 1.9275 1.5628 1.4709.437 2.2551.8584 2.8662 1.5627.6677.7641.9732 1.6225.9732 2.8048 0 2.9368-2.1197 4.6316-5.6725 4.6316-1.3385 0-2.4063-.1509-3.8393-.5911z"/><path d="m1.90532 34.3929h-.45354v1.0785h.37165c.28976 0 .37795-.0345.47244-.1823.05984-.0975.08819-.1981.08819-.3679 0-.3333-.17953-.5283-.47874-.5283zm.64567 1.5408c-.16378.0754-.31496.1163-.70866.1163h-.39055v1.3018h-.714964v-3.5343h.932284c.60157 0 .78425.0597.98268.1729.33385.1824.51023.5094.51023.9151 0 .4685-.22362.8458-.61102 1.0282z"/><path d="m8.08168 36.7512c-.09134.2798-.4378.6666-1.20315.6666-.53859 0-.93859-.1635-1.13701-.4717-.11654-.1823-.15433-.327-.15433-.6666v-2.462h.72756v2.3237c0 .2201.0189.3459.05984.4213.08189.1572.24882.2453.48504.2453.31181 0 .51024-.1541.53858-.4119.00945-.0755.00945-.1289.00945-.3145v-2.2639h.72441v2.3803c.00315.3364 0 .4025-.05039.5534z"/><path d="m12.2486 35.8456c-.0882-.0251-.1417-.0314-.2771-.0314h-.4441v.9559h.4629c.1481 0 .2552-.0189.3308-.0818.107-.0817.1826-.2453.1826-.4151.0063-.198-.0976-.3804-.2551-.4276zm-.0189-1.3772c-.063-.0252-.1386-.0472-.296-.0472h-.4126v.8081h.4252c.1669 0 .2456-.0157.3055-.0471.0976-.0504.1826-.217.1826-.3616 0-.1447-.0787-.3019-.2047-.3522zm.1575 2.8739c-.1134.0063-.2583.0095-.4535.0095h-1.115v-3.5343h1.1968c.4315 0 .6552.066.8725.2547.1984.1729.2898.3773.2898.6289 0 .2389-.0819.4433-.2394.5911-.1008.0975-.1638.1321-.3276.1855.4378.1258.7024.4277.7024.8899 0 .4874-.3055.9433-.926.9747z"/><path d="m17.7226 37.3518h-1.8708v-3.5343h.7275v2.9463h1.2693z"/><path d="m20.9502 33.8175h-.7425v3.5343h.7425z"/><path d="m25.0769 37.4148c-.4882 0-.8661-.1572-1.1559-.4874-.2834-.3207-.4283-.7483-.4283-1.2672 0-.4433.0756-.7955.2393-1.1005.2772-.5125.7843-.8175 1.3575-.8175.3528 0 .7024.1132.8977.2798l-.3213.4843c-.1764-.1321-.3685-.1981-.5638-.1981-.2393 0-.4724.1163-.6015.305-.1386.2044-.1985.4999-.1985.9087 0 .4842.041.7546.1481.9465.1417.2609.3779.3961.6834.3961.2079 0 .3969-.0628.6047-.2295l.3276.4465c-.2866.2295-.589.3333-.989.3333z"/><path d="m32.5353 37.4304c-.4032 0-.8504-.1163-1.2095-.3207l.2646-.5534c.3307.1729.6173.2861.9732.2861.4094 0 .6205-.1666.6205-.4811 0-.2295-.1481-.371-.463-.4591l-.3937-.1069c-.3528-.0974-.5701-.2326-.6992-.4465-.0977-.1572-.1481-.3427-.1481-.5376 0-.6446.5197-1.0943 1.2693-1.0943.4315 0 .8725.1321 1.1811.3553l-.337.5094c-.3212-.1949-.5606-.2704-.8252-.2704-.2897 0-.4945.1698-.4945.4088 0 .1823.0977.2735.3906.3553l.4283.1163c.5796.1572.8977.5314.8977 1.0534.0094.7106-.5733 1.1854-1.4551 1.1854z"/><path d="m37.9179 37.4148c-.4882 0-.8661-.1572-1.1559-.4874-.2866-.3207-.4284-.7483-.4284-1.2672 0-.4433.0756-.7955.2394-1.1005.2772-.5125.7843-.8175 1.3575-.8175.3528 0 .7024.1132.8976.2798l-.3212.4843c-.1764-.1321-.3685-.1981-.5638-.1981-.2394 0-.4724.1163-.6016.305-.1386.2044-.1984.4999-.1984.9087 0 .4842.0409.7546.148.9465.1418.2609.378.3961.6835.3961.2079 0 .3968-.0628.6079-.2295l.3275.4465c-.2897.2295-.5889.3333-.9921.3333z"/><path d="m43.0644 33.8175v1.3741h-1.0205v-1.3741h-.7087v3.5343h.7087v-1.5785h1.0205v1.5785h.7212v-3.5343z"/><path d="m48.4723 34.7673c-.0567-.1793-.2457-.4497-.6205-.4497-.2394 0-.4504.1227-.5512.3113-.1228.2296-.1795.5408-.1795.9685 0 .61.1008.9936.3181 1.1445.1134.0818.2551.1227.422.1227.4945 0 .7024-.3742.7024-1.2767 0-.3616-.0315-.6225-.0913-.8206zm.1196 2.4777c-.2141.1164-.4126.1635-.7086.1635-.5355 0-.8819-.1478-1.1528-.4968-.2708-.3459-.4094-.7955-.4094-1.3143 0-.7641.2929-1.3741.8-1.654.211-.11.4693-.1729.7338-.1729.9418 0 1.5244.6855 1.5244 1.7954.0032.8018-.2708 1.3993-.7874 1.6791z"/><path d="m53.9116 34.7673c-.0567-.1793-.2457-.4497-.6205-.4497-.2394 0-.4504.1227-.5512.3113-.1228.2296-.1795.5408-.1795.9685 0 .61.1008.9936.315 1.1445.1134.0818.2551.1227.422.1227.4945 0 .7024-.3742.7024-1.2767.0063-.3616-.0252-.6225-.0882-.8206zm.1228 2.4777c-.2141.1164-.4126.1635-.7086.1635-.5355 0-.8819-.1478-1.1528-.4968-.2709-.3459-.4063-.7955-.4063-1.3143 0-.7641.2898-1.3741.8-1.654.2079-.11.4693-.1729.7339-.1729.9417 0 1.5244.6855 1.5244 1.7954 0 .8018-.274 1.3993-.7906 1.6791z"/><path d="m57.3635 33.8175v3.5343h1.8678l.1291-.5912h-1.2693v-2.9431z"/><path d="m62.7243 37.4304c-.4032 0-.8504-.1163-1.2095-.3207l.2646-.5534c.3307.1729.6173.2861.9732.2861.4094 0 .6205-.1666.6205-.4811 0-.2295-.1481-.371-.463-.4591l-.3906-.1069c-.3527-.0974-.5701-.2326-.6992-.4465-.0976-.1572-.148-.3427-.148-.5376 0-.6446.5197-1.0943 1.2693-1.0943.4315 0 .8724.1321 1.1811.3553l-.337.5094c-.3213-.1949-.5607-.2704-.8252-.2704-.2898 0-.4945.1698-.4945.4088 0 .1823.0976.2735.3905.3553l.4284.1163c.5795.1572.8976.5314.8976 1.0534.0032.7106-.5764 1.1854-1.4582 1.1854z"/><path d="m86.9636 13.4832c-.0095-.044-.0126-.0975-.0158-.1132 2.4788-.7232 14.1602-5.08127 15.4202-5.53406-2.5729 3.17896-4.3745 13.32896-4.1635 16.40096.0725.8742 1.43 1.3552 1.7953 1.481.0032.0283.0032.0786 0 .1101-.8063.4056-11.4614 4.2952-12.7212 4.6473-.5008-4.4807.5228-12.6686 1.3196-14.9703.1733-.7609-.4724-1.4149-1.6346-2.0218z"/><path d="m87.4833 32.7674c3.3197-.5566 12.3685-3.1098 12.9827-3.4085 0 .066-.009.1163-.009.1415-1.2855 1.1728-2.2304 2.0595-2.2146 2.7293.022 1.132.4818 5.1127.907 5.7605-.5637.0251-12.0724-.0063-12.5921-.0032-.0031-.0251 0-.0943 0-.1163.3748-.2484 1.2976-.8396 1.2913-1.72-.107-1.4967-.3307-2.8111-.3653-3.3833z"/><path d="m109.001 5.41469c1.393-.63831 13.808-5.027837 14.53-5.247942-.004.034588-.013.097474-.019.147784-1.194.852118-3.125 2.285948-3.663 3.600298-.75 1.54702-2.829 8.54327-2.977 10.60907.01 1.0282 2.139.6949 2.567.7704.003.0157.01.0314.029.0629-.778.6288-10.608 6.3767-15.059 8.3577.643-7.9427 3.09-16.52365 4.592-18.30021z"/><path d="m104.497 28.1451c1.556-.4434 14.325-6.1095 15.925-7.0686.003.0378.028.1415.041.2076-.995 1.1602-3.959 3.5248-3.959 5.4837-.038 2.962 1.231 8.1093 1.565 9.4425.482.8585 1.811 1.4087 2.239 1.6383.004.0283 0 .0974 0 .1257-1.754.0566-14.059-.0125-14.507-.0125-.33-.6383-1.527-9.2916-1.304-9.8167z"/><path d="m87.2817 30.4595c.0567.4999.1638 1.852.1889 2.3237-.9448.2484-10.9133 1.8363-15.0488 1.6539-.0157-.1698 0-.3333-.0189-.5377 2.1638-.3302 10.2488-1.8457 14.8788-3.4399z"/><path d="m136.904 7.94266s.39-4.27634 1.112-7.94266c-.662.811245-2.624 2.54064-4.712 4.44927l-5.471-3.949317.926 7.958377c-2.239 1.90237-4.325 3.55937-5.506 4.27947l6.193-.0189 1.335 6.8296 3.726-7.1629 6.23.1101z"/></g></svg>

<svg width="141" height="38" viewBox="0 0 141 38" fill="none" xmlns="http://www.w3.org/2000/svg">
<path d="M0.906959 16.8411C0.906959 15.6211 0.869162 14.6684 0.812469 13.9043H4.76523C4.68964 14.7438 4.66759 15.2973 4.66759 16.8411V19.0516H7.17153V16.8411L7.09594 13.9043H11.1243C11.0487 14.8382 11.0298 15.4104 11.0298 16.8411V24.5637L11.1243 27.4816H7.09594L7.17153 24.5637V21.6834H4.66759V24.5637L4.76523 27.4816H0.812469L0.906959 24.6203V16.8411Z" fill="#576472"/>
<path d="M18.5007 15.7564C18.1385 15.7753 17.814 15.8885 17.6408 16.0803C16.9731 16.7469 16.6487 18.3316 16.6487 20.7339C16.6487 22.9476 16.9731 24.5669 17.5463 25.1581C17.7574 25.3876 18.1196 25.5197 18.4818 25.5197C19.7416 25.5197 20.3526 23.8972 20.3526 20.5233C20.3526 17.9858 19.8392 16.1746 19.0361 15.8507C18.8849 15.7941 18.6928 15.7564 18.5227 15.7564H18.5007ZM22.1479 14.9169C23.5243 16.2501 24.2109 18.1398 24.2109 20.6365C24.2109 24.9442 21.8802 27.749 18.3085 27.749C16.8377 27.749 15.5967 27.2333 14.5826 26.1863C13.3416 24.9285 12.7495 23.1331 12.7495 20.7119C12.7495 16.4607 15.0613 13.5616 18.4975 13.5616C18.5164 13.5616 18.5353 13.5616 18.5731 13.5805C20.1826 13.6214 21.2125 14.0207 22.1479 14.9169Z" fill="#576472"/>
<path d="M30.2675 19.8566C31.5084 19.8566 31.9683 19.3221 31.9683 17.9323C31.9683 16.75 31.4328 16.1966 30.2864 16.1966C30.0943 16.1966 29.962 16.1966 29.6754 16.272V19.8566H30.2675ZM25.8927 13.9075H31.6029C34.047 13.9075 35.8234 15.5268 35.8234 17.7782C35.8234 19.0737 35.4612 20.105 34.7935 20.8502C33.8171 21.9004 32.825 22.262 30.9919 22.262H30.4565C30.2832 22.2432 30.0155 22.2432 29.6722 22.2432V24.5323C29.6722 25.2775 29.6911 26.3057 29.7289 27.1264L29.7478 27.488H25.8895L25.9084 27.1264C25.9651 26.3434 25.984 25.3907 25.984 24.5323V16.86C25.984 16.2689 25.9651 15.6589 25.9084 14.5709L25.8927 13.9075Z" fill="#576472"/>
<path d="M41.2313 19.149C41.7289 18.0045 41.9589 17.5863 42.6455 16.5549C43.0455 15.9261 43.4266 15.4481 43.7541 15.1243C44.5384 14.3413 45.625 13.8477 46.6203 13.8477C46.7746 13.8477 46.9069 13.8665 47.1746 13.9043V16.5927C46.4691 16.6304 46.0313 16.8034 45.436 17.3002C44.9951 17.6618 44.7872 17.9102 44.3463 18.6145L48.0124 27.4816H43.9998L41.9935 21.9318L41.1715 23.0952V24.5668C41.1715 25.4818 41.1904 26.2616 41.2282 27.142L41.2471 27.4847H37.2722L37.2911 27.142C37.3289 26.3779 37.3667 25.4252 37.3667 24.5668V16.8222C37.3667 16.1368 37.3289 15.3915 37.2911 14.247L37.2722 13.9043H41.3226L41.3037 14.2659C41.2471 15.162 41.2282 16.0015 41.2282 16.8222V19.149H41.2313Z" fill="#576472"/>
<path d="M50.0755 27.4816L50.0944 27.0037C50.1321 25.8026 50.151 25.2869 50.151 24.5071V16.8411C50.151 15.5834 50.1321 14.7438 50.0755 13.9043H54.0503C53.9936 14.8979 53.9526 15.8507 53.9526 16.8411V24.5071C53.9526 25.2114 53.9715 26.1453 54.0282 27.0603L54.0471 27.4785H50.0755V27.4816Z" fill="#576472"/>
<path d="M63.5053 13.9043H66.3116L66.2927 14.247C66.2549 15.03 66.2171 16.0016 66.2171 16.86V27.4816H63.0077L59.0738 18.6146V24.5668C59.0738 25.3089 59.0927 26.2271 59.1494 27.1421L59.1683 27.4848H56.3589L56.3778 27.1421C56.4155 26.3591 56.4533 25.4064 56.4533 24.5668V16.8631C56.4533 16.1557 56.4344 15.4513 56.3778 14.2502L56.3589 13.9074H60.4659L63.6187 20.7936V16.8631C63.6187 16.2909 63.5998 15.662 63.5431 14.5363L63.5053 13.9043Z" fill="#576472"/>
<path d="M68.2234 23.2871C69.14 24.2995 69.562 24.6423 70.4219 25.0416C70.9762 25.29 71.5494 25.4252 72.0817 25.4252C73.2282 25.4252 73.9526 24.8718 73.9526 24.0323C73.9526 23.2493 73.5148 22.8877 71.8329 22.2966C70.3998 21.7998 69.9053 21.5357 69.2754 20.9634C68.4534 20.1238 68.1888 19.4006 68.1888 18.1586C68.1888 15.3381 70.3463 13.5647 73.8612 13.5647C74.7967 13.5647 75.351 13.659 76.4975 13.9263L76.4597 17.3977C75.7132 16.6336 75.3699 16.3852 74.6833 16.0833C74.2801 15.8915 73.8801 15.7972 73.5368 15.7972C72.4849 15.7972 71.7605 16.3506 71.7605 17.0958C71.7605 17.8379 72.2392 18.2404 73.688 18.6586C75.1589 19.0956 75.9431 19.517 76.5542 20.2213C77.2219 20.9854 77.5274 21.8438 77.5274 23.0261C77.5274 25.9629 75.4077 27.6577 71.8549 27.6577C70.5164 27.6577 69.4486 27.5068 68.0156 27.0666L68.2234 23.2871Z" fill="#576472"/>
<path d="M1.90532 34.3929H1.45178V35.4714H1.82343C2.11319 35.4714 2.20138 35.4369 2.29587 35.2891C2.35571 35.1916 2.38406 35.091 2.38406 34.9212C2.38406 34.5879 2.20453 34.3929 1.90532 34.3929ZM2.55099 35.9337C2.38721 36.0091 2.23603 36.05 1.84233 36.05H1.45178V37.3518H0.736816V33.8175H1.6691C2.27067 33.8175 2.45335 33.8772 2.65178 33.9904C2.98563 34.1728 3.16201 34.4998 3.16201 34.9055C3.16201 35.374 2.93839 35.7513 2.55099 35.9337Z" fill="#576472"/>
<path d="M8.08168 36.7512C7.99034 37.031 7.64388 37.4178 6.87853 37.4178C6.33994 37.4178 5.93994 37.2543 5.74152 36.9461C5.62498 36.7638 5.58719 36.6191 5.58719 36.2795V33.8175H6.31475V36.1412C6.31475 36.3613 6.33365 36.4871 6.37459 36.5625C6.45648 36.7197 6.62341 36.8078 6.85963 36.8078C7.17144 36.8078 7.36987 36.6537 7.39821 36.3959C7.40766 36.3204 7.40766 36.267 7.40766 36.0814V33.8175H8.13207V36.1978C8.13522 36.5342 8.13207 36.6003 8.08168 36.7512Z" fill="#576472"/>
<path d="M12.2486 35.8456C12.1604 35.8205 12.1069 35.8142 11.9715 35.8142H11.5274V36.7701H11.9903C12.1384 36.7701 12.2455 36.7512 12.3211 36.6883C12.4281 36.6066 12.5037 36.443 12.5037 36.2732C12.51 36.0752 12.4061 35.8928 12.2486 35.8456ZM12.2297 34.4684C12.1667 34.4432 12.0911 34.4212 11.9337 34.4212H11.5211V35.2293H11.9463C12.1132 35.2293 12.1919 35.2136 12.2518 35.1822C12.3494 35.1318 12.4344 34.9652 12.4344 34.8206C12.4344 34.6759 12.3557 34.5187 12.2297 34.4684ZM12.3872 37.3423C12.2738 37.3486 12.1289 37.3518 11.9337 37.3518H10.8187V33.8175H12.0155C12.447 33.8175 12.6707 33.8835 12.888 34.0722C13.0864 34.2451 13.1778 34.4495 13.1778 34.7011C13.1778 34.94 13.0959 35.1444 12.9384 35.2922C12.8376 35.3897 12.7746 35.4243 12.6108 35.4777C13.0486 35.6035 13.3132 35.9054 13.3132 36.3676C13.3132 36.855 13.0077 37.3109 12.3872 37.3423Z" fill="#576472"/>
<path d="M17.7226 37.3518H15.8518V33.8175H16.5793V36.7638H17.8486L17.7226 37.3518Z" fill="#576472"/>
<path d="M20.9502 33.8175H20.2077V37.3518H20.9502V33.8175Z" fill="#576472"/>
<path d="M25.0769 37.4148C24.5887 37.4148 24.2108 37.2576 23.921 36.9274C23.6376 36.6067 23.4927 36.1791 23.4927 35.6602C23.4927 35.2169 23.5683 34.8647 23.732 34.5597C24.0092 34.0472 24.5163 33.7422 25.0895 33.7422C25.4423 33.7422 25.7919 33.8554 25.9872 34.022L25.6659 34.5063C25.4895 34.3742 25.2974 34.3082 25.1021 34.3082C24.8628 34.3082 24.6297 34.4245 24.5006 34.6132C24.362 34.8176 24.3021 35.1131 24.3021 35.5219C24.3021 36.0061 24.3431 36.2765 24.4502 36.4684C24.5919 36.7293 24.8281 36.8645 25.1336 36.8645C25.3415 36.8645 25.5305 36.8017 25.7383 36.635L26.0659 37.0815C25.7793 37.311 25.4769 37.4148 25.0769 37.4148Z" fill="#576472"/>
<path d="M32.5353 37.4304C32.1321 37.4304 31.6849 37.3141 31.3258 37.1097L31.5904 36.5563C31.9211 36.7292 32.2077 36.8424 32.5636 36.8424C32.973 36.8424 33.1841 36.6758 33.1841 36.3613C33.1841 36.1318 33.036 35.9903 32.7211 35.9022L32.3274 35.7953C31.9746 35.6979 31.7573 35.5627 31.6282 35.3488C31.5305 35.1916 31.4801 35.0061 31.4801 34.8112C31.4801 34.1666 31.9998 33.7169 32.7494 33.7169C33.1809 33.7169 33.6219 33.849 33.9305 34.0722L33.5935 34.5816C33.2723 34.3867 33.0329 34.3112 32.7683 34.3112C32.4786 34.3112 32.2738 34.481 32.2738 34.72C32.2738 34.9023 32.3715 34.9935 32.6644 35.0753L33.0927 35.1916C33.6723 35.3488 33.9904 35.723 33.9904 36.245C33.9998 36.9556 33.4171 37.4304 32.5353 37.4304Z" fill="#576472"/>
<path d="M37.9179 37.4148C37.4297 37.4148 37.0518 37.2576 36.762 36.9274C36.4754 36.6067 36.3336 36.1791 36.3336 35.6602C36.3336 35.2169 36.4092 34.8647 36.573 34.5597C36.8502 34.0472 37.3573 33.7422 37.9305 33.7422C38.2833 33.7422 38.6329 33.8554 38.8281 34.022L38.5069 34.5063C38.3305 34.3742 38.1384 34.3082 37.9431 34.3082C37.7037 34.3082 37.4707 34.4245 37.3415 34.6132C37.2029 34.8176 37.1431 35.1131 37.1431 35.5219C37.1431 36.0061 37.184 36.2765 37.2911 36.4684C37.4329 36.7293 37.6691 36.8645 37.9746 36.8645C38.1825 36.8645 38.3714 36.8017 38.5825 36.635L38.91 37.0815C38.6203 37.311 38.3211 37.4148 37.9179 37.4148Z" fill="#576472"/>
<path d="M43.0644 33.8175V35.1916H42.0439V33.8175H41.3352V37.3518H42.0439V35.7733H43.0644V37.3518H43.7856V33.8175H43.0644Z" fill="#576472"/>
<path d="M48.4723 34.7673C48.4156 34.588 48.2266 34.3176 47.8518 34.3176C47.6124 34.3176 47.4014 34.4403 47.3006 34.6289C47.1778 34.8585 47.1211 35.1697 47.1211 35.5974C47.1211 36.2074 47.2219 36.591 47.4392 36.7419C47.5526 36.8237 47.6943 36.8646 47.8612 36.8646C48.3557 36.8646 48.5636 36.4904 48.5636 35.5879C48.5636 35.2263 48.5321 34.9654 48.4723 34.7673ZM48.5919 37.245C48.3778 37.3614 48.1793 37.4085 47.8833 37.4085C47.3478 37.4085 47.0014 37.2607 46.7305 36.9117C46.4597 36.5658 46.3211 36.1162 46.3211 35.5974C46.3211 34.8333 46.614 34.2233 47.1211 33.9434C47.3321 33.8334 47.5904 33.7705 47.8549 33.7705C48.7967 33.7705 49.3793 34.456 49.3793 35.5659C49.3825 36.3677 49.1085 36.9652 48.5919 37.245Z" fill="#576472"/>
<path d="M53.9116 34.7673C53.8549 34.588 53.6659 34.3176 53.2911 34.3176C53.0517 34.3176 52.8407 34.4403 52.7399 34.6289C52.6171 34.8585 52.5604 35.1697 52.5604 35.5974C52.5604 36.2074 52.6612 36.591 52.8754 36.7419C52.9888 36.8237 53.1305 36.8646 53.2974 36.8646C53.7919 36.8646 53.9998 36.4904 53.9998 35.5879C54.0061 35.2263 53.9746 34.9654 53.9116 34.7673ZM54.0344 37.245C53.8203 37.3614 53.6218 37.4085 53.3258 37.4085C52.7903 37.4085 52.4439 37.2607 52.173 36.9117C51.9021 36.5658 51.7667 36.1162 51.7667 35.5974C51.7667 34.8333 52.0565 34.2233 52.5667 33.9434C52.7746 33.8334 53.036 33.7705 53.3006 33.7705C54.2423 33.7705 54.825 34.456 54.825 35.5659C54.825 36.3677 54.551 36.9652 54.0344 37.245Z" fill="#576472"/>
<path d="M57.3635 33.8175V37.3518H59.2313L59.3604 36.7606H58.0911V33.8175H57.3635Z" fill="#576472"/>
<path d="M62.7243 37.4304C62.3211 37.4304 61.8739 37.3141 61.5148 37.1097L61.7794 36.5563C62.1101 36.7292 62.3967 36.8424 62.7526 36.8424C63.162 36.8424 63.3731 36.6758 63.3731 36.3613C63.3731 36.1318 63.225 35.9903 62.9101 35.9022L62.5195 35.7953C62.1668 35.6979 61.9494 35.5627 61.8203 35.3488C61.7227 35.1916 61.6723 35.0061 61.6723 34.8112C61.6723 34.1666 62.192 33.7169 62.9416 33.7169C63.3731 33.7169 63.814 33.849 64.1227 34.0722L63.7857 34.5816C63.4644 34.3867 63.225 34.3112 62.9605 34.3112C62.6707 34.3112 62.466 34.481 62.466 34.72C62.466 34.9023 62.5636 34.9935 62.8565 35.0753L63.2849 35.1916C63.8644 35.3488 64.1825 35.723 64.1825 36.245C64.1857 36.9556 63.6061 37.4304 62.7243 37.4304Z" fill="#576472"/>
<path d="M86.9636 13.4832C86.9541 13.4392 86.951 13.3857 86.9478 13.37C89.4266 12.6468 101.108 8.28873 102.368 7.83594C99.7951 11.0149 97.9935 21.1649 98.2045 24.2369C98.277 25.1111 99.6345 25.5921 99.9998 25.7179C100.003 25.7462 100.003 25.7965 99.9998 25.828C99.1935 26.2336 88.5384 30.1232 87.2786 30.4753C86.7778 25.9946 87.8014 17.8067 88.5982 15.505C88.7715 14.7441 88.1258 14.0901 86.9636 13.4832Z" fill="#576472"/>
<path d="M87.4833 32.7674C90.803 32.2108 99.8518 29.6576 100.466 29.3589C100.466 29.4249 100.457 29.4752 100.457 29.5004C99.1715 30.6732 98.2266 31.5599 98.2424 32.2297C98.2644 33.3617 98.7242 37.3424 99.1494 37.9902C98.5857 38.0153 87.077 37.9839 86.5573 37.987C86.5542 37.9619 86.5573 37.8927 86.5573 37.8707C86.9321 37.6223 87.8549 37.0311 87.8486 36.1507C87.7416 34.654 87.5179 33.3396 87.4833 32.7674Z" fill="#576472"/>
<path d="M109.001 5.41469C110.394 4.77638 122.809 0.386853 123.531 0.166748C123.527 0.201336 123.518 0.264222 123.512 0.314532C122.318 1.16665 120.387 2.60048 119.849 3.91483C119.099 5.46185 117.02 12.4581 116.872 14.5239C116.882 15.5521 119.011 15.2188 119.439 15.2943C119.442 15.31 119.449 15.3257 119.468 15.3572C118.69 15.986 108.86 21.7339 104.409 23.7149C105.052 15.7722 107.499 7.19125 109.001 5.41469Z" fill="#576472"/>
<path d="M104.497 28.1451C106.053 27.7017 118.822 22.0356 120.422 21.0765C120.425 21.1143 120.45 21.218 120.463 21.2841C119.468 22.4443 116.504 24.8089 116.504 26.7678C116.466 29.7298 117.735 34.8771 118.069 36.2103C118.551 37.0688 119.88 37.619 120.308 37.8486C120.312 37.8769 120.308 37.946 120.308 37.9743C118.554 38.0309 106.249 37.9618 105.801 37.9618C105.471 37.3235 104.274 28.6702 104.497 28.1451Z" fill="#576472"/>
<path d="M87.2817 30.4595C87.3384 30.9594 87.4455 32.3115 87.4706 32.7832C86.5258 33.0316 76.5573 34.6195 72.4218 34.4371C72.4061 34.2673 72.4218 34.1038 72.4029 33.8994C74.5667 33.5692 82.6517 32.0537 87.2817 30.4595Z" fill="#576472"/>
<path d="M136.904 7.94266C136.904 7.94266 137.294 3.66632 138.016 0C137.354 0.811245 135.392 2.54064 133.304 4.44927L127.833 0.499953L128.759 8.45833C126.52 10.3607 124.434 12.0177 123.253 12.7378L129.446 12.7189L130.781 19.5485L134.507 12.3856L140.737 12.4957L136.904 7.94266Z" fill="#576472"/>
</svg>
